assets/images/ico_link_20.svg

<svg width="21" height="21" viewBox="0 0 21 21" fill="none" xmlns="http://www.w3.org/2000/svg">
<path d="M18.6013 11.8404C18.1309 11.8404 17.7494 12.22 17.7494 12.6881V17.4115C17.7494 17.5191 17.6609 17.6071 17.5528 17.6071H3.39733C3.2892 17.6071 3.20072 17.5191 3.20072 17.4115V3.32528C3.20072 3.21767 3.2892 3.12964 3.39733 3.12964H8.07837C8.54881 3.12964 8.93032 2.75 8.93032 2.28185C8.93032 1.81371 8.54881 1.43407 8.07837 1.43407H3.39733C2.34924 1.43407 1.49683 2.28232 1.49683 3.32528V17.4115C1.49683 18.4545 2.34924 19.3027 3.39733 19.3027H17.5528C18.6009 19.3027 19.4533 18.4545 19.4533 17.4115V12.6881C19.4533 12.22 19.0718 11.8404 18.6013 11.8404ZM19.4968 2.14956C19.4968 2.09413 19.4912 2.0387 19.4804 1.9842C19.4748 1.95718 19.4645 1.93249 19.457 1.90641C19.4491 1.87939 19.443 1.85237 19.4318 1.82582C19.4187 1.79415 19.4009 1.76573 19.384 1.73592C19.3732 1.71729 19.3658 1.69772 19.3536 1.68002C19.3222 1.63344 19.2862 1.59012 19.2464 1.55053C19.2464 1.55053 19.2464 1.55006 19.2459 1.54959C19.2403 1.544 19.2338 1.54028 19.2277 1.53469C19.1926 1.50208 19.1565 1.47134 19.1163 1.44479C19.0952 1.43081 19.0718 1.42056 19.0493 1.40845C19.0226 1.39401 18.9978 1.37864 18.9697 1.36699C18.9412 1.35535 18.9112 1.34836 18.8817 1.33998C18.8579 1.33346 18.8349 1.32367 18.8106 1.31902C18.7633 1.3097 18.7151 1.30597 18.6669 1.30458C18.6594 1.30458 18.6524 1.30225 18.6453 1.30225H12.7472C12.2768 1.30225 11.8953 1.68188 11.8953 2.15003C11.8953 2.61817 12.2768 2.99781 12.7472 2.99781H16.5988L7.66737 11.9633C7.33549 12.2955 7.33783 12.8321 7.67159 13.1623C7.83776 13.3268 8.05496 13.4088 8.27169 13.4088C8.48843 13.4088 8.70984 13.3254 8.87602 13.1582L17.7929 4.208V8.02069C17.7929 8.48883 18.1744 8.86847 18.6449 8.86847C19.1153 8.86847 19.4968 8.48883 19.4968 8.02069V2.15143C19.4968 2.15143 19.4968 2.15003 19.4968 2.14956Z" fill="#787878"/>
</svg>

<svg xmlns="http://www.w3.org/2000/svg" width="21" height="21" fill="none"><path fill="#787878" d="M18.601 11.84a.85.85 0 0 0-.852.848v4.723a.197.197 0 0 1-.196.196H3.397a.197.197 0 0 1-.196-.195V3.325c0-.107.088-.195.196-.195h4.681a.85.85 0 0 0 .852-.848.85.85 0 0 0-.852-.848h-4.68c-1.049 0-1.901.848-1.901 1.891v14.087c0 1.043.852 1.89 1.9 1.89h14.156c1.048 0 1.9-.848 1.9-1.89v-4.724a.85.85 0 0 0-.852-.848Zm.896-9.69a.851.851 0 0 0-.017-.166c-.005-.027-.015-.052-.023-.078-.008-.027-.014-.054-.025-.08-.013-.032-.031-.06-.048-.09-.01-.019-.018-.038-.03-.056a.864.864 0 0 0-.108-.13l-.018-.015a.864.864 0 0 0-.112-.09c-.02-.014-.044-.024-.067-.037-.026-.014-.051-.03-.08-.041-.028-.012-.058-.019-.087-.027-.024-.007-.047-.016-.071-.021a.873.873 0 0 0-.144-.014c-.008 0-.015-.003-.022-.003h-5.898a.85.85 0 0 0-.852.848.85.85 0 0 0 .852.848H16.6l-8.932 8.965a.845.845 0 0 0 .005 1.2.85.85 0 0 0 1.204-.005l8.917-8.95v3.813a.85.85 0 0 0 .852.847.85.85 0 0 0 .852-.847V2.15Z"/></svg>
